X:1
T:Listen, Lordings, unto Me
T:Listen, Lordings, unto Me
T:Frederick Arthur Gore-Ouseley
T:Henry Ramsden Bramley, 1871
T:Public Domain Courtesy of the Cyber Hymnal™
T:Public Domain Courtesy of the Cyber Hymnal™
C:Frederick Arthur Gore-Ouseley
Z:Public Domain
Z:Courtesy of the Cyber Hymnal™
%%score ( 1 2 ) ( 3 4 )
L:1/8
Q:1/4=83
M:2/4
K:C
V:1 treble 
V:2 treble 
V:3 bass 
V:4 bass 
V:1
 Cc BA | G>E C[B,D] | (E/F/)[DG] E[^Fc] | [GB]4 | [EA][GB] [Gc]e[^Fd]F[B,G][EA] | %5
w: 1.~List- en, Lord- ings,|un- to me, A|tale * I will you|tell;|Which, as on this night of glee, In|
w: 2.~In the inn they|found no room; A|scan- * ty bed they|made:|Soon a babe from Ma- ry’s womb Was|
w: 3.~Shep- herds lay a-|field that night, To|keep * the sil- ly|sheep,|Hosts of an- gels in their sight Came|
w: 4.~On- ward then the|an- gels sped, The|shep- * herds on- ward|went,|God was in His man- ger bed, In|
 [DB][Cc] A3/2 (D/[CG]/) | [B,G]2 z2 | [Gd][Gd] [Ge]>[Ge] | [Ge]>[Gd] [Gd]G[Gc][Gd][Ge] (d/c/) | %9
w: Da- vid’s town be- *|fel.|Jo- seph came from|Na- za- reth, With Ma- ry that sweet *|
w: in the man- ger *|laid.|Forth He came as|light through glass: He came to save us *|
w: down from Heav’n’s high *|steep.|Tid- ings! Tid- ings!|un- to you tto you a child is *|
w: wor- ship low they *|bent.|In the morn- ing|see ye mind, My mas- ters one and *|
 [Gd]2 z2 | [Fd]>[Fd] [Ed][Ec] | [DB]>[Ec] [CA]E | [DF][DA] [EA][E^G][EA] z2 ||"^Refrain" [GB] | %14
w: maid:|Wea- ry they were,|nigh to death; And|for a lodg- ing prayed.||
w: all.|In the sta- ble|ox and ass Be-|fore their mak- er fall.||
w: born,|Pur- er than the|drops of dew, And|bright- er than the morn.||
w: all,|At the al- tar|Him to find, Who|lay with- in the stall.||
 [Gc] z2 [EG] | [CE] z2 [EG] | [EA][EG] [DF][EG] | [FA]G [CE]2 | [Ac][Ac]/[Ac]/ [Af][Ge] | %19
w: |||||
w: |||||
w: |||||
w: |||||
 [Gd]2 [Gd]2 | [Ge][Gd] [Ec][EB] | [CA][CA] G[CE] | (A/B/)[Gc] [Fd]>[Ec] | [Ec]2 z2 |] %24
w: |||||
w: |||||
w: |||||
w: |||||
V:2
 Cc BA | G>E C x | C x/ E x3/2 | x4 | x3 (A/G/) x/ (D/C/) x5/2 | x2 E x3/2 | x4 | x4 | %8
 x3 G x2 G x | x4 | x4 | x3 E | x7 || x | x4 | x4 | x4 | x (E/D/) x2 | x4 | x4 | x4 | %21
 x2 (C/B,/) x | F x3 | x4 |] %24
V:3
 C,C B,A, | G,>E, C,[G,,G,] | [C,G,][B,,G,] [C,G,][A,,A,] | [G,,D]4 | %4
w: ~ ~ ~ ~|~ ~ ~ ~|~ ~ ~ ~|~|
 [G,C][F,D] [E,C] (C/B,/)[D,B,] (B,/A,/)[E,G,][C,G,] | [D,G,][E,G,] [C,G,][D,^F,] x/ | %6
w: ~ ~ ~ ~ * ~ ~ * ~ ~|~ ~ ~ ~|
 [G,,G,]2 z2 | [G,B,][G,B,] [E,B,]>[C,C] | [G,C]>[G,B,] [G,B,]G,[E,A,][D,B,][C,C] (B,/A,/) | %9
w: ~|~ ~ ~ ~|~ ~ ~ ~ ~ ~ ~ ~ *|
 [G,B,]2 z2 | [D,A,]>[D,A,] [A,,A,][A,,A,] | [E,^G,]>[E,G,] [F,A,][C,A,] | %12
w: ~|~ ~ ~ ~|~ ~ ~ ~|
 [D,A,][F,A,] [E,B,][E,B,][A,C] z2 || [G,D] | [CE]C C[C,C] | [C,G,]C, C,[C,C] | %16
w: ~ ~ ~ ~ ~|Sing|high, sing high, sing|low, sing low. Sing|
 [A,,C][C,C] [D,A,][C,C] | [F,C][G,B,] [A,C]2 | [F,C][F,C]/[F,C]/ [F,C]C | [G,B,]2 [G,B,]2 | %20
w: high, sing low, sing|to and fro,|Go tell it out with|speed, Cry|
 C[G,B,] [A,C][E,G,] | [F,A,][C,E,] [D,F,][E,G,] | [F,C][C,E] [G,,B,]>[C,C] | [C,C]2 z2 |] %24
w: out and shout all|round a- bout, That|Christ is born in-|deed.|
V:4
 C,C B,A, | G,>E, C, x | x4 | x4 | x3 C, x/ D, x5/2 | x9/2 | x4 | x4 | x3 G, x2 C, x | x4 | x4 | %11
 x4 | x7 || x | x4 | x4 | x4 | x4 | x3 C | x4 | C x3 | x4 | x4 | x4 |] %24

